local/share/icons/dracula-icons-main/scalable/apps/gnome-maps.svg

<?xml version="1.0" encoding="UTF-8"?>
<svg xmlns="http://www.w3.org/2000/svg" xmlns:xlink="http://www.w3.org/1999/xlink" width="64" height="64" viewBox="0 0 64 64">
<path fill-rule="nonzero" fill="rgb(22.745098%, 63.529412%, 95.686275%)" fill-opacity="1" d="M 15.394531 6.648438 L 1.5625 10.355469 C 1.871094 11.535156 2.488281 12.589844 3.414062 13.519531 C 4.710938 14.8125 6.253906 15.507812 8.042969 15.601562 L 8.050781 15.601562 C 8.179688 15.605469 8.300781 15.609375 8.421875 15.609375 L 8.550781 15.609375 C 8.679688 15.609375 8.804688 15.605469 8.921875 15.597656 C 8.960938 15.597656 8.996094 15.59375 9.027344 15.589844 C 9.332031 15.570312 9.632812 15.53125 9.914062 15.476562 C 10.035156 15.453125 10.15625 15.425781 10.269531 15.398438 C 11.492188 15.089844 12.574219 14.464844 13.519531 13.519531 C 14.253906 12.78125 14.796875 11.96875 15.144531 11.070312 C 15.394531 10.421875 15.546875 9.726562 15.59375 8.988281 C 15.597656 8.910156 15.601562 8.828125 15.605469 8.746094 C 15.609375 8.65625 15.609375 8.5625 15.609375 8.464844 L 15.609375 8.421875 C 15.609375 7.804688 15.535156 7.21875 15.394531 6.648438 Z M 15.394531 6.648438 "/>
<path fill-rule="nonzero" fill="rgb(36.470588%, 72.156863%, 37.647059%)" fill-opacity="1" d="M 8.464844 1.324219 C 8.324219 1.324219 8.183594 1.328125 8.042969 1.332031 C 6.253906 1.425781 4.710938 2.121094 3.414062 3.414062 C 2.019531 4.808594 1.324219 6.492188 1.324219 8.464844 C 1.324219 9.074219 1.390625 9.652344 1.523438 10.203125 L 15.351562 6.5 C 15.347656 6.480469 15.34375 6.460938 15.339844 6.445312 C 15.300781 6.3125 15.257812 6.179688 15.210938 6.046875 C 15.113281 5.769531 14.996094 5.5 14.859375 5.234375 C 14.804688 5.121094 14.738281 5.007812 14.671875 4.894531 C 14.367188 4.371094 13.980469 3.878906 13.519531 3.414062 C 12.417969 2.316406 11.140625 1.648438 9.679688 1.417969 C 9.433594 1.378906 9.183594 1.351562 8.921875 1.335938 C 8.773438 1.328125 8.621094 1.324219 8.464844 1.324219 Z M 8.464844 1.324219 "/>
<path fill-rule="evenodd" fill="rgb(99.607843%, 91.764706%, 22.745098%)" fill-opacity="1" d="M 5.46875 1.960938 C 4.890625 2.230469 4.347656 2.582031 3.839844 3.023438 L 8.617188 7.804688 L 1.425781 9.730469 C 1.535156 10.371094 1.722656 10.976562 2 11.546875 L 10.171875 9.359375 L 10.273438 9.332031 L 15.589844 7.90625 C 15.558594 7.476562 15.496094 7.058594 15.394531 6.648438 C 15.378906 6.585938 15.359375 6.515625 15.339844 6.445312 C 15.300781 6.3125 15.257812 6.179688 15.210938 6.046875 C 15.210938 6.042969 15.207031 6.039062 15.207031 6.039062 L 10.742188 7.234375 Z M 5.46875 1.960938 "/>
<path fill-rule="nonzero" fill="rgb(100%, 100%, 100%)" fill-opacity="1" d="M 10.59375 7.308594 C 10.59375 8.480469 9.640625 9.433594 8.464844 9.433594 C 7.292969 9.433594 6.339844 8.480469 6.339844 7.308594 C 6.339844 6.132812 7.292969 5.183594 8.464844 5.183594 C 9.640625 5.183594 10.59375 6.132812 10.59375 7.308594 Z M 10.59375 7.308594 "/>
<path fill-rule="nonzero" fill="rgb(96.078431%, 29.803922%, 24.705882%)" fill-opacity="1" d="M 8.464844 4.234375 C 6.859375 4.234375 5.554688 5.535156 5.554688 7.144531 C 5.554688 7.265625 5.566406 7.386719 5.582031 7.503906 C 5.828125 9.777344 8.277344 12.398438 8.277344 12.398438 C 8.320312 12.449219 8.363281 12.476562 8.402344 12.5 L 8.40625 12.5 L 8.488281 12.527344 L 8.570312 12.5 C 8.609375 12.476562 8.652344 12.445312 8.695312 12.398438 C 8.695312 12.398438 11.109375 9.773438 11.351562 7.5 C 11.367188 7.382812 11.375 7.265625 11.375 7.144531 C 11.375 5.535156 10.074219 4.234375 8.464844 4.234375 Z M 8.464844 9.015625 C 7.433594 9.015625 6.59375 8.175781 6.59375 7.144531 C 6.59375 6.113281 7.433594 5.269531 8.464844 5.269531 C 9.5 5.269531 10.335938 6.113281 10.335938 7.144531 C 10.335938 8.175781 9.5 9.015625 8.464844 9.015625 Z M 8.464844 9.015625 "/>
</svg>

<?xml version="1.0" encoding="UTF-8"?>
<svg width="64" height="64" version="1.1" viewBox="0 0 16.933 16.933" xmlns="http://www.w3.org/2000/svg" xmlns:cc="http://creativecommons.org/ns#" xmlns:dc="http://purl.org/dc/elements/1.1/" xmlns:rdf="http://www.w3.org/1999/02/22-rdf-syntax-ns#">
 <metadata>
  <rdf:RDF>
   <cc:Work rdf:about="">
    <dc:format>image/svg+xml</dc:format>
    <dc:type rdf:resource="http://purl.org/dc/dcmitype/StillImage"/>
    <dc:title/>
   </cc:Work>
  </rdf:RDF>
 </metadata>
 <path d="m15.393 6.648-13.832 3.7062c0.31104 1.1823 0.92787 2.2373 1.8546 3.1641 1.2948 1.294 2.8377 1.9884 4.6291 2.0815h0.0062c0.12865 0.0068 0.25095 0.01033 0.37051 0.01033h0.12816c0.1294-0.0015 0.2543-0.0058 0.3731-0.01188 0.037836-0.0022 0.071606-0.0049 0.1049-0.0072 0.30572-0.02194 0.60377-0.06103 0.8883-0.11627 0.12032-0.02346 0.23946-0.05003 0.35449-0.07803 1.2229-0.30725 2.3024-0.93249 3.2483-1.8784 0.73555-0.73555 1.2778-1.5509 1.6252-2.4484 0.25124-0.64928 0.40166-1.3419 0.45009-2.0805 0.0053-0.078701 0.0089-0.1604 0.01189-0.24287 0.0031-0.091568 0.0047-0.18548 0.0047-0.28008v-0.045474c-3e-3 -0.61523-0.07501-1.2034-0.21652-1.7709-1.66e-4 -6.614e-4 -3.44e-4 -0.0014-5.29e-4 -0.00206z" fill="#3aa2f4" stroke-width=".26458"/>
 <path d="m8.4667 1.3228c-0.14151 0-0.28153 0.00359-0.42228 0.011162-1.7912 0.092321-3.3342 0.78644-4.6288 2.0812-1.3949 1.3949-2.0924 3.0787-2.0924 5.0512 0 0.6069 0.066557 1.1862 0.19859 1.7385l13.831-3.7061c-5e-3 -0.018378-0.0092-0.036044-0.01442-0.054415-0.037835-0.13243-0.080978-0.26615-0.1279-0.39857-0.097619-0.27622-0.21399-0.54565-0.3502-0.81204-0.057512-0.112-0.12066-0.22629-0.1865-0.33904-0.30725-0.52215-0.69288-1.017-1.1553-1.4794-1.0988-1.0988-2.3787-1.7654-3.8392-1.9984-0.24593-0.03935-0.49607-0.066545-0.75715-0.080922-0.14681-0.008325-0.30065-0.013022-0.45579-0.013022z" fill="#5db860" stroke-width=".23719"/>
 <path d="m5.4687 1.9595c-0.57882 0.26903-1.1223 0.62366-1.6306 1.0636l4.78 4.78-7.1915 1.9263c0.10698 0.64119 0.29717 1.2479 0.57251 1.8194l8.1742-2.1905 0.10185-0.027441 5.3144-1.4241c-0.03011-0.43093-0.09423-0.84928-0.1958-1.2566-0.01665-0.065836-0.03567-0.13641-0.05534-0.20603-0.03784-0.13243-0.08098-0.26615-0.1279-0.39857-9.9e-4 -0.00268-0.0023-0.00522-0.0032-0.0079l-4.4643 1.1962-5.2744-5.2744z" fill="#feea3a" fill-rule="evenodd" stroke-width=".23812" style="paint-order:fill markers stroke"/>
 <g transform="matrix(1.2222 0 0 1.2222 -1.8815 -1.9682)">
  <circle cx="8.4665" cy="7.5896" r="1.7395" fill="#fff" stroke-linecap="round" stroke-linejoin="bevel" stroke-width=".52916" style="paint-order:stroke fill markers"/>
  <path d="m8.4666 5.0739c-1.3151 0-2.3812 1.0661-2.3812 2.3812 0 0.10067 0.0081 0.19878 0.020385 0.29604 0.20347 1.86 2.2062 4.0038 2.2062 4.0038 0.035685 0.03993 0.070083 0.06457 0.10321 0.0824l0.00171 8.57e-4 0.06669 0.02124 0.06669-0.02124 0.00171-8.57e-4c0.033129-0.01785 0.067545-0.04375 0.10321-0.0824 0 0 1.9739-2.1475 2.1727-4.0079 0.01189-0.095991 0.01997-0.19327 0.01997-0.29224-4.31e-4 -1.3146-1.0661-2.3807-2.3812-2.3807zm0 3.9129c-0.84442 0-1.5317-0.68725-1.5317-1.5317s0.68725-1.5317 1.5317-1.5317c0.84443 0 1.5312 0.68725 1.5312 1.5317s-0.68683 1.5317-1.5312 1.5317z" fill="#f54c3f" stroke-width=".010661"/>
 </g>
</svg>
